X: 6949
T: Chestnut Tree, The
R: slip jig
M: 9/8
K: Gmajor
|:AFD D3 ABc|B2G GFG ABc|BAG AFD D3|1 AFD DEF G2z:|2 AFD DEF GBc||
|:dBG GFG ABc|dBG GFG A2F|D3 c2A B2G|1 AFD DEF GBc:|2 AFD DEF G2z||

